X:1
T:Pols fran Engerdal
C:
R:Pols
Z:Anton Tljebck 2007-12-12
S:Knd genom Zara Helje
O:Engerdal, Norge
N:Det finns fler ltar frn Norge
M:3/4
L:1/8
K:D
D>F A>B A>G | F>A (3BGB A2 | D>F A>B A>G | (3FDF (3E^CE D2 | 
D>F A>B A>G | F>A (3BGB A>c | d>e (3fdf e>c | d2 d4 :|
c>d e2 e2 | e>f g2 g2 | (3efg g<f e>d | d<c e4 |c>d e2 e2 | e>f g2 g2 | (3efg g<f e>d | d<c d4:|
